art/system/msx2.svg

<svg xmlns="http://www.w3.org/2000/svg" id="Layer_1" x="0" y="0" viewBox="0 0 3839 1300"><style id="style1" type="text/css">.st0{fill:#fff}</style><path id="path1" d="M3173.9 30v1239.9H30V30zm30-30H0v1299.9h3203.9z" class="st0" style="fill:#fff"/><path id="path2" d="M2033.2 428.4v-.1h-445.5c-69.4 0-69.4 104.1 0 104.1v.1h206.2c382.6 0 382.6 574 0 574v-.1h-636.8l-112.2-411.2-112 411.2h-212L608.7 695.2l-112.1 411.2H253l249.1-913h213.3l111.5 408.7 111.5-408.7h213.2l184.94 678.1H1794v.1c69.3-.1 69.27-104.1-.1-104.1v-.1h-206.2c0-19.57 0-39.13 0 0-382.6 0-382.6-574 0-574h714.6l170.14 239.57L2642.6 193.4h288.1l-314.2 442.42 334.2 470.58h-288.1l-190.16-267.73-190.14 267.73h-288.2l334.26-470.59-147.32-207.41Zm-445.5 339c0 19.57 0 39.13 0 0m0-339.1c0 78.3 0-78.2 0 0" class="st0" style="fill:#fff"/><path id="path3" d="M3281 732.2c1.2-88.6 12.1-160.2 53.4-211 41.3-51 111.6-80.1 228-80.1 225.6 0 276.5 105.6 276.5 234.1 0 116.5-42.5 190.5-106.8 254.7l-133.4 129.8c-19.4 19.4-47.3 44.9-55.8 70.4H3839V1300h-565.3c0-118.9 30.3-228 128.6-328.7l150.5-152.9c43.7-43.7 60.7-76.4 60.7-140.7 0-72.8-23.1-95.9-58.2-95.9-31.5 0-63.1 17-63.1 114.1v36.4H3281z" class="st0" style="fill:#fff"/></svg>

<?xml version="1.0" encoding="utf-8"?>
<svg version="1.1" id="Layer_1" x="0px" y="0px" viewBox="0 0 3839 1300" style="enable-background:new 0 0 3839 1300;" xmlns="http://www.w3.org/2000/svg">
  <path class="st0" d="M 3173.9 30 L 3173.9 1269.9 L 30 1269.9 L 30 30 L 3173.9 30 M 3203.9 0 L 0 0 L 0 1299.9 L 3203.9 1299.9 L 3203.9 0 Z" style="fill: rgb(255, 255, 255);"/>
  <path d="M 2033.2 428.4 L 2033.2 428.3 L 1587.7 428.3 C 1518.3 428.3 1518.3 532.4 1587.7 532.4 C 1587.7 532.433 1587.7 532.467 1587.7 532.5 L 1793.9 532.5 C 2176.5 532.5 2176.5 1106.5 1793.9 1106.5 C 1793.9 1106.467 1793.9 1106.433 1793.9 1106.4 L 1157.1 1106.4 L 1044.9 695.2 L 932.9 1106.4 L 720.9 1106.4 L 608.7 695.2 L 496.6 1106.4 L 253 1106.4 L 502.1 193.4 L 715.4 193.4 L 826.9 602.1 L 938.4 193.4 L 1151.6 193.4 L 1336.536 871.5 L 1794 871.5 L 1794 871.6 C 1863.3 871.5 1863.267 767.5 1793.9 767.5 C 1793.9 767.467 1793.9 767.433 1793.9 767.4 L 1587.7 767.4 C 1587.7 747.833 1587.7 728.267 1587.7 767.4 C 1205.1 767.4 1205.1 193.4 1587.7 193.4 L 2302.3 193.4 L 2472.437 432.967 L 2642.6 193.4 L 2930.7 193.4 L 2616.5 635.819 L 2950.7 1106.4 L 2662.6 1106.4 L 2472.44 838.668 L 2282.3 1106.4 L 1994.1 1106.4 L 2328.358 635.81 L 2181.043 428.4 Z M 1587.7 767.4 C 1587.7 786.967 1587.7 806.534 1587.7 767.4 Z M 1587.7 428.3 C 1587.7 506.6 1587.7 350.1 1587.7 428.3 Z" class="st0" style="fill: rgb(255, 255, 255);"/>
  <path class="st0" d="M 3281 732.2 C 3282.2 643.6 3293.1 572 3334.4 521.2 C 3375.7 470.2 3446 441.1 3562.4 441.1 C 3788 441.1 3838.9 546.7 3838.9 675.2 C 3838.9 791.7 3796.4 865.7 3732.1 929.9 L 3598.7 1059.7 C 3579.3 1079.1 3551.4 1104.6 3542.9 1130.1 L 3839 1130.1 L 3839 1300 L 3273.7 1300 C 3273.7 1181.1 3304 1072 3402.3 971.3 L 3552.8 818.4 C 3596.5 774.7 3613.5 742 3613.5 677.7 C 3613.5 604.9 3590.4 581.8 3555.3 581.8 C 3523.8 581.8 3492.2 598.8 3492.2 695.9 L 3492.2 732.3 L 3281 732.3 L 3281 732.2 Z" style="fill: rgb(255, 255, 255);"/>
</svg>
